svg/l/FK.svg

<svg width="32" height="24" viewBox="0 0 32 24" fill="none" xmlns="http://www.w3.org/2000/svg">
<mask id="mask0" mask-type="alpha" maskUnits="userSpaceOnUse" x="0" y="0" width="32" height="24">
<rect width="32" height="24" fill="white"/>
</mask>
<g mask="url(#mask0)">
<path fill-rule="evenodd" clip-rule="evenodd" d="M0 0V24H32V0H0Z" fill="#2E42A5"/>
<mask id="mask1" mask-type="alpha" maskUnits="userSpaceOnUse" x="0" y="0" width="32" height="24">
<path fill-rule="evenodd" clip-rule="evenodd" d="M0 0V24H32V0H0Z" fill="white"/>
</mask>
<g mask="url(#mask1)">
<path d="M25.9503 19.714C24.9216 19.714 24.2057 19.4712 23.6961 19.0478C23.1843 18.6225 22.8487 17.9888 22.6341 17.1443C22.4191 16.2985 22.3312 15.2635 22.2983 14.0611C22.2753 13.2161 22.2795 12.2991 22.2841 11.3158C22.2857 10.9791 22.2873 10.6347 22.2878 10.2827H29.7038C29.8362 12.6901 29.8836 15.0362 29.4124 16.7958C29.1702 17.7 28.7967 18.4261 28.2479 18.9257C27.7044 19.4206 26.9664 19.714 25.9503 19.714Z" fill="#6DC2FF" stroke="#F7FCFF" stroke-width="0.5"/>
<mask id="mask2" mask-type="alpha" maskUnits="userSpaceOnUse" x="22" y="10" width="9" height="10">
<path d="M25.9503 19.714C24.9216 19.714 24.2057 19.4712 23.6961 19.0478C23.1843 18.6225 22.8487 17.9888 22.6341 17.1443C22.4191 16.2985 22.3312 15.2635 22.2983 14.0611C22.2753 13.2161 22.2795 12.2991 22.2841 11.3158C22.2857 10.9791 22.2873 10.6347 22.2878 10.2827H29.7038C29.8362 12.6901 29.8836 15.0362 29.4124 16.7958C29.1702 17.7 28.7967 18.4261 28.2479 18.9257C27.7044 19.4206 26.9664 19.714 25.9503 19.714Z" fill="white" stroke="white" stroke-width="0.5"/>
</mask>
<g mask="url(#mask2)">
<path fill-rule="evenodd" clip-rule="evenodd" d="M24.5222 13.587C24.5222 13.587 24.1275 13.2951 23.9582 12.8221C23.789 12.3492 23.4541 11.0903 23.4541 10.981C23.4541 10.8717 23.0085 10.981 23.0085 10.981C23.0085 10.981 23.0148 10.4486 23.1829 10.4486C23.3511 10.4486 23.3574 9.95497 23.7654 10.0793C24.1733 10.2036 24.4942 10.6595 24.9099 10.6595C25.3257 10.6595 27.0637 10.792 27.3431 10.792C27.6224 10.792 28.3589 11.3817 28.3589 11.8231C28.3589 12.2645 28.158 12.9221 28.0001 12.9221C27.8421 12.9221 27.6433 13.3047 27.3431 13.1784C27.0428 13.0521 26.3259 12.792 25.6837 12.9221C25.0415 13.0521 24.9099 12.9704 24.9099 13.1784C24.9099 13.3864 24.5222 13.587 24.5222 13.587Z" fill="#E1E5E8"/>
<path fill-rule="evenodd" clip-rule="evenodd" d="M23.6001 13.2787H28.7557L27.8677 14.4262H24.2249L23.6001 13.2787Z" fill="#49801E"/>
<path d="M23.5332 18.2955C23.5332 18.2955 24.4242 18.6142 24.7966 18.5755C25.209 18.5326 25.5741 18.0625 25.8497 18.0625C26.1248 18.0625 26.6545 18.5328 27.0659 18.5755C27.4389 18.6142 28.1662 18.2955 28.1662 18.2955" stroke="white" stroke-width="1.06667"/>
<path d="M22.5547 16.9362C22.8628 16.6753 23.5332 16.6563 23.5332 16.6563C23.5332 16.6563 24.4242 16.975 24.7966 16.9362C25.209 16.8933 25.5741 16.4232 25.8497 16.4232C26.1249 16.4232 26.6546 16.8935 27.066 16.9362C27.4389 16.975 28.1663 16.6563 28.1663 16.6563C28.1663 16.6563 28.5728 16.1992 29.0832 16.6818" stroke="white" stroke-width="1.06667"/>
<path d="M22.461 15.5297L21.7866 14.7032C22.051 14.4875 22.495 14.2748 23.1431 14.0398L23.4577 14.0246C24.1296 14.1973 24.5788 14.2722 24.7433 14.2557C24.7976 14.2502 24.8883 14.2061 25.054 14.0962C25.5246 13.7841 25.5703 13.7587 25.8497 13.7587C26.105 13.7587 26.1577 13.7832 26.6914 14.0714C26.7905 14.1245 26.8277 14.1438 26.8813 14.1696C26.994 14.2236 27.0747 14.2512 27.119 14.2557C27.2472 14.2685 27.5052 14.2087 27.8663 14.0634C28.3358 13.6366 28.9306 13.6808 29.4423 14.1469C29.7836 14.4579 30.0576 14.7091 30.2645 14.9008L29.5394 15.6832C29.3351 15.4939 29.0632 15.2446 28.7239 14.9354C28.589 14.8125 28.6181 14.8133 28.5581 14.8783L28.3736 15.0079C27.8134 15.2444 27.371 15.3529 27.0127 15.317C26.8204 15.2978 26.6344 15.2342 26.4197 15.1312C26.3478 15.0966 26.2964 15.07 26.1845 15.0099C25.9269 14.8708 25.8291 14.8253 25.8497 14.8253C25.8945 14.8253 25.8323 14.86 25.6436 14.9851C25.3402 15.1864 25.1291 15.289 24.8497 15.317C24.5409 15.348 24.0592 15.2735 23.3548 15.0988C22.8972 15.2719 22.5932 15.4217 22.461 15.5297Z" fill="white"/>
</g>
<path d="M22.9632 18.3937C22.9632 18.3937 23.9472 19.3361 23.353 19.9747C22.7589 20.6133 22.2141 20.2424 22.2141 20.2424" stroke="#B85F3C"/>
<path d="M29.0499 18.3937C29.0499 18.3937 28.066 19.3361 28.6601 19.9747C29.2543 20.6133 29.7991 20.2424 29.7991 20.2424" stroke="#B85F3C"/>
<path d="M22.3206 19.1531C22.3206 19.1531 24.0158 20.773 26.0997 20.773C28.1837 20.773 29.8606 19.5354 29.8606 19.5354" stroke="#CB8B73"/>
<rect width="18" height="14" fill="#2B409A"/>
<mask id="mask3" mask-type="alpha" maskUnits="userSpaceOnUse" x="0" y="0" width="18" height="14">
<rect width="18" height="14" fill="white"/>
</mask>
<g mask="url(#mask3)">
<path d="M-2.00415 12.9997L1.9568 14.7369L18.09 1.88866L20.1793 -0.692871L15.9436 -1.27349L9.3633 4.2632L4.06679 7.99363L-2.00415 12.9997Z" fill="#F7FCFF"/>
<path d="M-1.46191 14.217L0.556007 15.2251L19.429 -0.932617H16.5956L-1.46191 14.217Z" fill="#F50100"/>
<path d="M20.0044 12.9997L16.0434 14.7369L-0.0897522 1.88866L-2.17906 -0.692871L2.0566 -1.27349L8.63695 4.2632L13.9335 7.99363L20.0044 12.9997Z" fill="#F7FCFF"/>
<path d="M19.8691 13.8733L17.8512 14.8815L9.81489 7.96351L7.43229 7.19059L-2.3802 -0.683947H0.453194L10.2602 7.00368L12.8651 7.9305L19.8691 13.8733Z" fill="#F50100"/>
<mask id="path-21-outside-1" maskUnits="userSpaceOnUse" x="-2" y="-2" width="22" height="18" fill="black">
<rect fill="white" x="-2" y="-2" width="22" height="18"/>
<path fill-rule="evenodd" clip-rule="evenodd" d="M9.98451 0H7.98451V6H0V8H7.98451V14H9.98451V8H18V6H9.98451V0Z"/>
</mask>
<path fill-rule="evenodd" clip-rule="evenodd" d="M9.98451 0H7.98451V6H0V8H7.98451V14H9.98451V8H18V6H9.98451V0Z" fill="#F50100"/>
<path d="M7.98451 0V-1.5H6.48451V0H7.98451ZM9.98451 0H11.4845V-1.5H9.98451V0ZM7.98451 6V7.5H9.48451V6H7.98451ZM0 6V4.5H-1.5V6H0ZM0 8H-1.5V9.5H0V8ZM7.98451 8H9.48451V6.5H7.98451V8ZM7.98451 14H6.48451V15.5H7.98451V14ZM9.98451 14V15.5H11.4845V14H9.98451ZM9.98451 8V6.5H8.48451V8H9.98451ZM18 8V9.5H19.5V8H18ZM18 6H19.5V4.5H18V6ZM9.98451 6H8.48451V7.5H9.98451V6ZM7.98451 1.5H9.98451V-1.5H7.98451V1.5ZM9.48451 6V0H6.48451V6H9.48451ZM0 7.5H7.98451V4.5H0V7.5ZM1.5 8V6H-1.5V8H1.5ZM7.98451 6.5H0V9.5H7.98451V6.5ZM9.48451 14V8H6.48451V14H9.48451ZM9.98451 12.5H7.98451V15.5H9.98451V12.5ZM8.48451 8V14H11.4845V8H8.48451ZM18 6.5H9.98451V9.5H18V6.5ZM16.5 6V8H19.5V6H16.5ZM9.98451 7.5H18V4.5H9.98451V7.5ZM8.48451 0V6H11.4845V0H8.48451Z" fill="#F7FCFF" mask="url(#path-21-outside-1)"/>
</g>
</g>
</g>
</svg>

<svg width="32" height="24" fill="none" xmlns="http://www.w3.org/2000/svg">
  <mask id="a" maskUnits="userSpaceOnUse" x="0" y="0" width="32" height="24">
    <path fill="#fff" d="M0 0h32v24H0z"/>
  </mask>
  <g mask="url(#a)">
    <path fill-rule="evenodd" clip-rule="evenodd" d="M0 0v24h32V0H0z" fill="#2E42A5"/>
    <mask id="b" maskUnits="userSpaceOnUse" x="0" y="0" width="32" height="24">
      <path fill-rule="evenodd" clip-rule="evenodd" d="M0 0v24h32V0H0z" fill="#fff"/>
    </mask>
    <g mask="url(#b)">
      <path d="M25.95 19.714c-1.028 0-1.744-.243-2.254-.666-.512-.425-.847-1.06-1.062-1.904-.215-.846-.303-1.88-.336-3.083a88.606 88.606 0 01-.014-2.745l.004-1.033h7.416c.132 2.407.18 4.753-.292 6.513-.242.904-.615 1.63-1.164 2.13-.544.495-1.282.788-2.298.788z" fill="#6DC2FF" stroke="#F7FCFF" stroke-width=".5"/>
      <mask id="c" maskUnits="userSpaceOnUse" x="22" y="10" width="9" height="10">
        <path d="M25.95 19.714c-1.028 0-1.744-.243-2.254-.666-.512-.425-.847-1.06-1.062-1.904-.215-.846-.303-1.88-.336-3.083a88.606 88.606 0 01-.014-2.745l.004-1.033h7.416c.132 2.407.18 4.753-.292 6.513-.242.904-.615 1.63-1.164 2.13-.544.495-1.282.788-2.298.788z" fill="#fff" stroke="#fff" stroke-width=".5"/>
      </mask>
      <g mask="url(#c)">
        <path fill-rule="evenodd" clip-rule="evenodd" d="M24.522 13.587s-.395-.292-.564-.765c-.17-.473-.504-1.732-.504-1.841 0-.11-.446 0-.446 0s.006-.532.175-.532c.168 0 .174-.494.582-.37.408.125.729.58 1.145.58.415 0 2.153.133 2.433.133.279 0 1.015.59 1.015 1.031 0 .441-.2 1.1-.358 1.1-.158 0-.357.382-.657.255-.3-.126-1.017-.386-1.66-.256-.642.13-.773.048-.773.256 0 .208-.388.409-.388.409z" fill="#E1E5E8"/>
        <path fill-rule="evenodd" clip-rule="evenodd" d="M23.6 13.279h5.155l-.887 1.147h-3.643L23.6 13.28z" fill="#49801E"/>
        <path d="M23.533 18.296s.89.318 1.263.28c.413-.043.778-.513 1.053-.513.276 0 .805.47 1.217.513.373.038 1.1-.28 1.1-.28m-5.612-1.36c.308-.26.979-.28.979-.28s.89.319 1.263.28c.413-.043.778-.513 1.053-.513.276 0 .805.47 1.217.513.373.039 1.1-.28 1.1-.28s.406-.457.917.026" stroke="#fff" stroke-width="1.067"/>
        <path d="M22.46 15.53l-.674-.827c.265-.215.709-.428 1.357-.663l.314-.015c.672.172 1.122.247 1.286.23.054-.005.145-.049.31-.159.471-.312.517-.337.796-.337.256 0 .308.024.842.313.1.053.136.072.19.098a.862.862 0 00.238.086c.128.013.386-.047.747-.193.47-.426 1.064-.382 1.576.084.341.311.615.562.822.754l-.725.782c-.204-.189-.476-.438-.815-.748-.135-.122-.106-.122-.166-.057l-.185.13c-.56.237-1.002.345-1.36.31a1.765 1.765 0 01-.594-.187 5.303 5.303 0 01-.235-.121c-.257-.14-.355-.185-.335-.185.045 0-.017.035-.206.16-.303.202-.514.304-.794.332-.308.031-.79-.043-1.494-.218-.458.173-.762.323-.894.43z" fill="#fff"/>
      </g>
      <path d="M22.963 18.394s.984.942.39 1.58c-.594.64-1.139.268-1.139.268m6.836-1.848s-.984.942-.39 1.58c.594.64 1.139.268 1.139.268" stroke="#B85F3C"/>
      <path d="M22.32 19.153s1.696 1.62 3.78 1.62c2.084 0 3.76-1.238 3.76-1.238" stroke="#CB8B73"/>
      <path fill="#2B409A" d="M0 0h18v14H0z"/>
      <mask id="d" maskUnits="userSpaceOnUse" x="0" y="0" width="18" height="14">
        <path fill="#fff" d="M0 0h18v14H0z"/>
      </mask>
      <g mask="url(#d)">
        <path d="M-2.004 13l3.96 1.737L18.09 1.889l2.09-2.582-4.236-.58-6.58 5.536-5.297 3.73L-2.004 13z" fill="#F7FCFF"/>
        <path d="M-1.462 14.217l2.018 1.008L19.429-.933h-2.833l-18.058 15.15z" fill="#F50100"/>
        <path d="M20.004 13l-3.96 1.737L-.09 1.889-2.18-.693l4.236-.58 6.58 5.536 5.297 3.73L20.004 13z" fill="#F7FCFF"/>
        <path d="M19.87 13.873l-2.019 1.009-8.036-6.918-2.383-.773L-2.38-.684H.453l9.807 7.688 2.605.927 7.004 5.942z" fill="#F50100"/>
        <mask id="e" maskUnits="userSpaceOnUse" x="-2" y="-2" width="22" height="18" fill="#000">
          <path fill="#fff" d="M-2-2h22v18H-2z"/>
          <path fill-rule="evenodd" clip-rule="evenodd" d="M9.985 0h-2v6H0v2h7.985v6h2V8H18V6H9.985V0z"/>
        </mask>
        <path fill-rule="evenodd" clip-rule="evenodd" d="M9.985 0h-2v6H0v2h7.985v6h2V8H18V6H9.985V0z" fill="#F50100"/>
        <path d="M7.985 0v-1.5h-1.5V0h1.5zm2 0h1.5v-1.5h-1.5V0zm-2 6v1.5h1.5V6h-1.5zM0 6V4.5h-1.5V6H0zm0 2h-1.5v1.5H0V8zm7.985 0h1.5V6.5h-1.5V8zm0 6h-1.5v1.5h1.5V14zm2 0v1.5h1.5V14h-1.5zm0-6V6.5h-1.5V8h1.5zM18 8v1.5h1.5V8H18zm0-2h1.5V4.5H18V6zM9.985 6h-1.5v1.5h1.5V6zm-2-4.5h2v-3h-2v3zm1.5 4.5V0h-3v6h3zM0 7.5h7.985v-3H0v3zm1.5.5V6h-3v2h3zm6.485-1.5H0v3h7.985v-3zm1.5 7.5V8h-3v6h3zm.5-1.5h-2v3h2v-3zM8.485 8v6h3V8h-3zM18 6.5H9.985v3H18v-3zM16.5 6v2h3V6h-3zM9.985 7.5H18v-3H9.985v3zM8.485 0v6h3V0h-3z" fill="#F7FCFF" mask="url(#e)"/>
      </g>
    </g>
  </g>
</svg>
